X:1
T:Adaptation pour flûte à bec alto du Capriccio n° 1 pour violoncelle
T:Joseph Marie Clément Dall'Abaco (1710-1805)
L:1/8
M:4/4
K:Eb
V:1 treble nm="Flûte à bec alto" snm="Fl. bc. A."
V:1
 ce' Te'd'/e'/ ge'af' | Bd' Td'c'/d'/ fd'ge' | Ac' Tc'=b/c'/ ec'fd' | Gc'=ba gfed | %4
 ce' Te'd'/e'/ ge'af' | Bd' Td'c'/d'/ fd'ge' | Ac'{d'} c'=b/c'/ ec'fd' | Gc'=ba g^fag | %8
 Gb Tb=a/b/ dbec' | F=a T=ag/=a/ c=adb | eg Tg^f/g/ Bgc=a | dg^fc BgGg | dg^fc BgGg | %13
 dg=ag d^f=a^f | [Gdb]8 :: Gb Tb=a/b/ dbec' | F=a T=ag/=a/ c=adb | eg{a} g^f/g/ Bgc=a | %18
 dg^fe dcB=A | Gb Tb=a/b/ dbec' | F=a T=ag/=a/ c=adb | eg Tg^f/g/ Bgc=a | dg^fe dedc | %23
 =Bgd'e' d'g=Bg | cge'd' e'ge'g | =Afc'd' c'f=Af | Bfd'c' d'f=d'f | =A^fc'd' c'^f=d'=a | %28
 bd'^fg bd=gd | ec'b=a g2 T^f2 | g2 G>A G2 F2 | =ecga gcec | Fcag acac | dBfg fBdB | eBgf gedf | %35
 ce' e'd'/e'/ ge'af' | Bd' d'c'/d'/ fd'ge' | Ac' Tc'=b/c'/ ec'fd' | G=b b=a/b/ fbdb | %39
 Gc' c'=b/c'/ gc'dc' | Gd' d'c'/d'/ fd'ec' | d=bca =BgA^f | gde=B cedc | =BAGf ec'cc' | %44
 Gc=Bf ec'cc' | Gc=Bf ec'cc' | Gcdc G=BdB | [Gec']8 :| %48

